X:2342
T:Polska te' Wiik
C:Av Viksta Lasse
S:Efter Peter "Puma" Hedlund (fiddle), 1/2009
S:Learnt from Viksta-Lasse
Z:[[http://www.bluerose.karenlmyers.org/IncipitsPolskaUppland2.html|Karen Myers (#2342A)]]
Z:Upptecknad 2/2009
M:3/4
L:1/8
R:Polska
O:Uppland
K:G
([G,D]B) (BA/B/) c>A | (AG) G2 B>d | g2 (gf/g/) a>g | (ed) d4 |
([G,D]B) (BA/B/) c>A | (AG) G2 B>d | g2 (gf/g/) a>g | (ed) d4 ||
(gf/g/) (ae) g>e | (ed) (d>B) G>g | (gf/g/) (ae) g>e | (ed) (d>B) G2 | (BA/B/) (cd/c/) B>G |
(AB) GB d2 | (BA/B/) (cd/c/) B>G |1 (AB) G4 :|2 (AB) G3 (B ||
d>)g b2 b>g- | gf/g/ (af) d>f | (fe/f/) (g>e) c>e | (ed) (d>B) G>(B |
d>)g b2 b>g- | gf/g/ (af) d>f | (fe/f/) (g>e) c>e | (ed) (d>B) G2 ||
(BA/B/) (cd/c/) B>G | (AB) GB d2 | (BA/B/) (cd/c/) B>G | (AB) G4 |]
"^Variations on measures 1-2, 5-6"[G,2D2] [D2B2] [DB][DB]  | (Ac) BG G2 |
